svg/fluentui-system-icons/ic_fluent_dual_screen_speaker_20_filled.svg

<svg width="20" height="20" viewBox="0 0 20 20" fill="none" xmlns="http://www.w3.org/2000/svg">
<path d="M17.65 2.20003C17.7712 2.36167 17.9351 2.65306 18.0932 3.07447C18.3482 3.75469 18.5 4.56403 18.5 5.50003C18.5 6.43603 18.3482 7.24537 18.0932 7.92559C17.9351 8.347 17.7712 8.63839 17.65 8.80003C17.4843 9.02094 17.1709 9.06571 16.95 8.90003C16.7536 8.75275 16.6964 8.48876 16.8025 8.27676L16.9182 8.09485C16.9838 7.98267 17.0688 7.80917 17.1568 7.57447C17.3705 7.00469 17.5 6.31403 17.5 5.50003C17.5 4.68603 17.3705 3.99537 17.1568 3.42559C17.0688 3.19089 16.9838 3.01739 16.9182 2.90521L16.85 2.80003C16.6843 2.57912 16.7291 2.26571 16.95 2.10003C17.1709 1.93434 17.4843 1.97912 17.65 2.20003ZM13.6913 2.03807C13.8782 2.11547 14 2.29778 14 2.50001V8.50001C14 8.70225 13.8782 8.88456 13.6913 8.96195C13.5045 9.03935 13.2894 8.99657 13.1464 8.85357L11.2929 7.00001H10.5C10.2239 7.00001 10 6.77616 10 6.50001V4.50001C10 4.22387 10.2239 4.00001 10.5 4.00001H11.2929L13.1464 2.14646C13.2894 2.00346 13.5045 1.96068 13.6913 2.03807ZM16.2243 3.96692C16.1224 3.661 16.0196 3.42114 15.9472 3.27642C15.8237 3.02943 15.5234 2.92932 15.2764 3.05282C15.0294 3.17631 14.9293 3.47665 15.0528 3.72364C15.1054 3.82892 15.1901 4.02655 15.2756 4.28314C15.4163 4.70506 15.5 5.12357 15.5 5.50003C15.5 5.87649 15.4163 6.295 15.2756 6.71692C15.2243 6.87087 15.1733 7.0036 15.1293 7.10789L15.0528 7.27642C14.9293 7.52341 15.0294 7.82375 15.2764 7.94724C15.5234 8.07074 15.8237 7.97063 15.9472 7.72364C16.0196 7.57892 16.1224 7.33905 16.2243 7.03314C16.3962 6.51756 16.5 5.99857 16.5 5.50003C16.5 5.00149 16.3962 4.4825 16.2243 3.96692ZM16.35 9.70009C16.093 9.50736 15.9157 9.24837 15.8236 8.96481C15.5389 9.02791 15.2341 9.00871 14.9473 8.89463C14.8271 9.33529 14.5094 9.70555 14.074 9.88589C13.5135 10.1181 12.8683 9.98973 12.4393 9.56073L10.8787 8.00007H10.5V16H16C17.1046 16 18 15.1046 18 14V9.79956C17.4956 10.0904 16.8453 10.0716 16.35 9.70009ZM9.5 16V7.61813C9.19313 7.34347 9 6.94432 9 6.50007V4.50007C9 4.32473 9.03009 4.15641 9.08538 4H4C2.89543 4 2 4.89543 2 6V14C2 15.1046 2.89543 16 4 16H9.5ZM6 13.5C6 13.2239 6.22386 13 6.5 13H7.5C7.77614 13 8 13.2239 8 13.5C8 13.7761 7.77614 14 7.5 14H6.5C6.22386 14 6 13.7761 6 13.5ZM12.5 13H13.5C13.7761 13 14 13.2239 14 13.5C14 13.7761 13.7761 14 13.5 14H12.5C12.2239 14 12 13.7761 12 13.5C12 13.2239 12.2239 13 12.5 13Z" fill="#212121"/>
</svg>

<svg xmlns="http://www.w3.org/2000/svg" width="20" height="20"><path d="M17.65 2.2c.121.162.285.453.443.874.255.68.407 1.49.407 2.426 0 .936-.152 1.745-.407 2.426-.158.421-.322.712-.443.874a.5.5 0 0 1-.848-.523l.116-.182c.066-.112.15-.286.239-.52.213-.57.343-1.261.343-2.075 0-.814-.13-1.505-.343-2.074a3.475 3.475 0 0 0-.239-.52L16.85 2.8a.5.5 0 1 1 .8-.6Zm-3.959-.162A.5.5 0 0 1 14 2.5v6a.5.5 0 0 1-.854.354L11.293 7H10.5a.5.5 0 0 1-.5-.5v-2a.5.5 0 0 1 .5-.5h.793l1.853-1.854a.5.5 0 0 1 .545-.108Zm2.533 1.929a5.509 5.509 0 0 0-.277-.69.5.5 0 1 0-.894.447c.052.105.137.303.223.56.14.421.224.84.224 1.216s-.084.795-.224 1.217a5.456 5.456 0 0 1-.147.39l-.076.17a.5.5 0 1 0 .894.447 5.51 5.51 0 0 0 .277-.69c.172-.516.276-1.035.276-1.534 0-.499-.104-1.018-.276-1.533ZM16.35 9.7a1.493 1.493 0 0 1-.526-.735c-.285.063-.59.044-.877-.07a1.5 1.5 0 0 1-2.508.666L10.88 8h-.38v8H16a2 2 0 0 0 2-2V9.8a1.5 1.5 0 0 1-1.65-.1ZM9.5 16V7.618A1.496 1.496 0 0 1 9 6.5v-2c0-.175.03-.344.085-.5H4a2 2 0 0 0-2 2v8a2 2 0 0 0 2 2h5.5ZM6 13.5a.5.5 0 0 1 .5-.5h1a.5.5 0 0 1 0 1h-1a.5.5 0 0 1-.5-.5Zm6.5-.5h1a.5.5 0 0 1 0 1h-1a.5.5 0 0 1 0-1Z"/></svg>
